static/assets/images/icons/cm3-mono.svg

<svg width="257" height="256" viewBox="0 0 257 256" fill="none" xmlns="http://www.w3.org/2000/svg">
<path d="M146.571 181.226L236.613 130.098C242.352 126.84 245.261 122.41 245.307 117.908L245.307 117.844C245.307 117.806 245.307 117.767 245.307 117.729C245.279 113.422 242.633 109.064 237.341 105.615L212.542 89.4519C204.186 84.0053 193.075 82.2832 183.244 84.6731C182.882 84.7611 182.522 84.8547 182.164 84.9538C179.595 85.6649 177.125 86.6636 174.829 87.9571C180.453 84.7634 183.224 80.8194 183.244 76.7872V76.6963C183.224 72.6552 180.443 68.5306 175.009 64.9884L150.502 49.0157C139.602 41.9114 121.604 41.3546 110.302 47.7721L20.2594 98.8996C14.502 102.169 11.5929 106.617 11.5651 111.134L11.5651 111.271C11.5943 115.577 14.2402 119.934 19.5313 123.383L28.4126 129.172L116.771 79.0004C123.776 75.0228 134.927 75.3653 141.678 79.7654L146.399 82.8425C149.156 84.6395 150.804 86.9566 151.046 89.3781C151.707 95.9852 160.062 101.495 170.838 102.43L171.195 102.461C175.15 102.804 178.826 103.978 181.587 105.777L186.061 108.693C190.159 111.364 191.693 114.916 190.699 118.185C190.056 120.301 188.353 122.299 185.6 123.862L97.2424 174.033L106.37 179.982C117.27 187.087 135.269 187.643 146.571 181.226Z" fill="black"/>
<path d="M238.26 134.161L148.217 185.288C136.915 191.706 116.457 191.149 105.557 184.045L96.4286 178.096V201.084L105.557 207.033C116.457 214.138 136.915 214.695 148.217 208.277L238.26 157.15C243.867 153.966 246.772 149.663 246.946 145.268L246.953 121.97C246.907 126.472 243.998 130.902 238.26 134.161Z" fill="black"/>
<path fill-rule="evenodd" clip-rule="evenodd" d="M145.939 87.7353L141.218 84.6583C134.467 80.2582 123.316 79.9157 116.311 83.8933L29.2241 133.342V156.331L116.311 106.882C123.316 102.904 134.467 103.247 141.218 107.647L145.939 110.724C148.696 112.521 150.344 114.838 150.586 117.26C151.247 123.867 159.602 129.376 170.377 130.312C170.61 130.332 170.844 130.28 171.046 130.164L183.807 122.855C187.574 120.696 189.238 115.956 185.6 113.586L181.127 110.67C178.366 108.87 174.689 107.697 170.735 107.354L170.377 107.323C159.602 106.388 151.247 100.878 150.586 94.2709C150.344 91.8495 148.696 89.5324 145.939 87.7353Z" fill="black"/>
<path fill-rule="evenodd" clip-rule="evenodd" d="M26.7514 156.331L26.7514 133.342L18.9545 128.261C13.6633 124.812 11.0174 120.454 10.9883 116.149L10.9895 139.244C11.0614 143.515 13.7071 147.829 18.9545 151.249L26.7514 156.331Z" fill="black"/>
<path d="M182.17 84.2067C182.17 84.2067 182.991 83.7974 184.632 83.388L184.631 77.2475C184.632 80.5224 183.401 82.9786 182.17 84.2067Z" fill="black"/>
</svg>

<svg xmlns="http://www.w3.org/2000/svg" fill="none" viewBox="0 0 257 256"><path fill="#000" d="m146.571 181.226 90.042-51.128c5.739-3.258 8.648-7.688 8.694-12.19v-.179c-.028-4.307-2.674-8.665-7.966-12.114l-24.799-16.163c-8.356-5.447-19.467-7.169-29.298-4.779q-.543.132-1.08.28a32.7 32.7 0 0 0-7.335 3.004c5.624-3.194 8.395-7.138 8.415-11.17v-.09c-.02-4.042-2.801-8.166-8.235-11.709l-24.507-15.972c-10.9-7.105-28.898-7.661-40.2-1.244L20.259 98.9c-5.757 3.269-8.666 7.717-8.694 12.234v.137c.03 4.306 2.675 8.663 7.966 12.112l8.882 5.789L116.77 79c7.005-3.977 18.156-3.635 24.907.765l4.721 3.078c2.757 1.796 4.405 4.114 4.647 6.535.661 6.607 9.016 12.117 19.792 13.052l.357.031c3.955.343 7.631 1.517 10.392 3.316l4.474 2.916c4.098 2.671 5.632 6.223 4.638 9.492-.643 2.116-2.346 4.114-5.099 5.677l-88.358 50.171 9.128 5.949c10.9 7.105 28.899 7.661 40.201 1.244"/><path fill="#000" d="m238.26 134.161-90.043 51.127c-11.302 6.418-31.76 5.861-42.66-1.243l-9.128-5.949v22.988l9.128 5.949c10.9 7.105 31.358 7.662 42.66 1.244l90.043-51.127c5.607-3.184 8.512-7.487 8.686-11.882l.007-23.298c-.046 4.502-2.955 8.932-8.693 12.191"/><path fill="#000" fill-rule="evenodd" d="m145.939 87.735-4.721-3.077c-6.751-4.4-17.902-4.742-24.907-.765l-87.087 49.449v22.989l87.087-49.449c7.005-3.978 18.156-3.635 24.907.765l4.721 3.077c2.757 1.797 4.405 4.114 4.647 6.536.661 6.607 9.016 12.116 19.791 13.052.233.02.467-.032.669-.148l12.761-7.309c3.767-2.159 5.431-6.899 1.793-9.269l-4.473-2.916c-2.761-1.8-6.438-2.973-10.392-3.316l-.358-.031c-10.775-.935-19.13-6.445-19.791-13.052-.242-2.421-1.89-4.739-4.647-6.536M26.751 156.331v-22.989l-7.797-5.081c-5.29-3.449-7.937-7.807-7.966-12.112l.002 23.095c.071 4.271 2.717 8.585 7.964 12.005z" clip-rule="evenodd"/><path fill="#000" d="M182.17 84.207s.821-.41 2.462-.819l-.001-6.14c.001 3.274-1.23 5.73-2.461 6.959"/></svg>
